web/ui/src/components/theme/button/svgs/confirm.svg

<svg height="16" viewBox="0 0 16 16" width="16" xmlns="http://www.w3.org/2000/svg"><g fill="none"><path d="m0 0h16v16h-16z" fill="#000" opacity="0"/><path d="m8 15c-3.85998438 0-7-3.1400156-7-7 0-3.85998437 3.14001562-7 7-7 3.8599844 0 7 3.14001563 7 7 0 3.8599844-3.1400156 7-7 7zm0-13c-3.3085 0-6 2.6915-6 6s2.6915 6 6 6 6-2.6915 6-6-2.6915-6-6-6zm3.5482056 3.40878785c.2176032.17001022.2561849.48423295.0861746.70183611l-3.69396882 4.72806454c-.02320775.0297045-.04910281.0560731-.07707257.0790306l.0517723-.053856c-.1775009.2115373-.4928787.2391293-.70441603.0616284l-3.06417777-2.57115046c-.21153733-.1775009-.23912931-.4928787-.06162842-.70441603.1775009-.21153733.4928787-.23912931.70441603-.06162842l2.67059455 2.24047441 3.38647003-4.33380851c.1700102-.21760316.4842329-.25618486.7018361-.08617464z" fill="#595959"/></g></svg>

<?xml version="1.0" encoding="UTF-8"?>
<svg width="16px" height="16px" viewBox="0 0 16 16" version="1.1" xmlns="http://www.w3.org/2000/svg" xmlns:xlink="http://www.w3.org/1999/xlink">
    <title>confirm</title>
    <g id="页面-1" stroke="none" stroke-width="1" fill="none" fill-rule="evenodd">
        <g id="系统设计规范" transform="translate(-773.000000, -5253.000000)" fill-rule="nonzero">
            <g id="confirm" transform="translate(773.000000, 5253.000000)">
                <rect id="矩形" fill="#000000" opacity="0" x="0" y="0" width="16" height="16"></rect>
                <path d="M8,15 C4.14001562,15 1,11.8599844 1,8 C1,4.14001563 4.14001562,1 8,1 C11.8599844,1 15,4.14001563 15,8 C15,11.8599844 11.8599844,15 8,15 Z M8,2 C4.6915,2 2,4.6915 2,8 C2,11.3085 4.6915,14 8,14 C11.3085,14 14,11.3085 14,8 C14,4.6915 11.3085,2 8,2 Z M11.5482056,5.40878785 C11.7658088,5.57879807 11.8043905,5.8930208 11.6343802,6.11062396 L7.94041138,10.8386885 C7.91720363,10.868393 7.89130857,10.8947616 7.86333881,10.9177191 L7.91511111,10.8638631 C7.73761021,11.0754004 7.42223241,11.1029924 7.21069508,10.9254915 L4.14651731,8.35434104 C3.93497998,8.17684014 3.907388,7.86146234 4.08488889,7.64992501 C4.26238979,7.43838768 4.57776759,7.4107957 4.78930492,7.58829659 L7.45989947,9.828771 L10.8463695,5.49496249 C11.0163797,5.27735933 11.3306024,5.23877763 11.5482056,5.40878785 Z" id="形状" fill="#595959"></path>
            </g>
        </g>
    </g>
</svg>
